src/lib/packages/icons/src/assets/filled/layout-web-8.svg

<svg width="24" height="24" viewBox="0 0 24 24" fill="none" xmlns="http://www.w3.org/2000/svg">
<path d="M21 7V12.95C21 13.116 20.866 13.25 20.7 13.25H3.30005C3.13405 13.25 3 13.116 3 12.95V7C3 5 4 4 6 4H18C20 4 21 5 21 7ZM3 15.05V17C3 19 4 20 6 20H18C20 20 21 19 21 17V15.05C21 14.884 20.866 14.75 20.7 14.75H3.30005C3.13405 14.75 3 14.884 3 15.05Z" fill="currentColor"/>
</svg>

<svg xmlns="http://www.w3.org/2000/svg" width="24" height="24" fill="none"><path fill="currentColor" d="M21 7v5.95a.3.3 0 0 1-.3.3H3.3a.3.3 0 0 1-.3-.3V7c0-2 1-3 3-3h12c2 0 3 1 3 3ZM3 15.05V17c0 2 1 3 3 3h12c2 0 3-1 3-3v-1.95a.3.3 0 0 0-.3-.3H3.3a.3.3 0 0 0-.3.3Z"/></svg>
